X:1
T: The Haughs of Delbagie
C:Alexander Walker
R:Strathspey
Q: 128
K:Em
M:4/4
L:1/16
|:B,E3 E3F G3A B3e|g3d f3d F3d GFED|B,E3 E3F G3A B3e|g3e bagf e4 e4|
B,E3 E3F G3A B3e|g3d f3d F3d GFED|B,E3 E3F G3A B3e|g3e bagf e4 e2g2|
b3e f3d eB3 B3c|d^cBA d3A F3A D3f|b3e f3d Be3 e3f|d^cBA BAGF E4 E2f2|
g3e b3e Be3 e3g|f3d fedc dD3 D3F|B,E3 E3F G3A B3f|g3e bagf e4-e4:|
